dist/svgs/core-ui-icons/free/cil-speedometer.svg

<svg xmlns="http://www.w3.org/2000/svg" viewBox="0 0 512 512"><path d="M425.706 142.294A240 240 0 0016 312v88h144v-32H48v-56c0-114.691 93.309-208 208-208s208 93.309 208 208v56H352v32h144v-88a238.432 238.432 0 00-70.294-169.706z"/><path d="M80 264h32v32H80zm160-136h32v32h-32zm-104 40h32v32h-32zm264 96h32v32h-32zm-102.778 71.1l69.2-144.173-28.85-13.848-69.183 144.135a64.141 64.141 0 1028.833 13.886zM256 416a32 32 0 1132-32 32.036 32.036 0 01-32 32z"/></svg>

<svg xmlns="http://www.w3.org/2000/svg" viewBox="0 0 512 512">
  <path fill="var(--ci-primary-color, currentColor)" d="M425.706,142.294A240,240,0,0,0,16,312v88H160V368H48V312c0-114.691,93.309-208,208-208s208,93.309,208,208v56H352v32H496V312A238.432,238.432,0,0,0,425.706,142.294Z" class="ci-primary"/>
  <rect width="32" height="32" x="80" y="264" fill="var(--ci-primary-color, currentColor)" class="ci-primary"/>
  <rect width="32" height="32" x="240" y="128" fill="var(--ci-primary-color, currentColor)" class="ci-primary"/>
  <rect width="32" height="32" x="136" y="168" fill="var(--ci-primary-color, currentColor)" class="ci-primary"/>
  <rect width="32" height="32" x="400" y="264" fill="var(--ci-primary-color, currentColor)" class="ci-primary"/>
  <path fill="var(--ci-primary-color, currentColor)" d="M297.222,335.1l69.2-144.173-28.85-13.848L268.389,321.214A64.141,64.141,0,1,0,297.222,335.1ZM256,416a32,32,0,1,1,32-32A32.036,32.036,0,0,1,256,416Z" class="ci-primary"/>
</svg>
